images/brands/rapidata.svg

<svg fill="none" height="180" viewBox="0 0 520 180" width="520" xmlns="http://www.w3.org/2000/svg" xmlns:xlink="http://www.w3.org/1999/xlink"><linearGradient id="a" gradientUnits="userSpaceOnUse" x1="61.7854" x2="142.164" y1="125.69" y2="79.2222"><stop offset="0" stop-color="#07f"/><stop offset="1" stop-color="#00ecbb"/></linearGradient><linearGradient id="b" gradientUnits="userSpaceOnUse" x1="124.807" x2="89.4911" y1="100.187" y2="90.7113"><stop offset="0" stop-color="#fff"/><stop offset="1" stop-color="#fff" stop-opacity="0"/></linearGradient><clipPath id="c"><path d="m61 35h398.734v100h-398.734z"/></clipPath><mask id="d" height="75" maskUnits="userSpaceOnUse" width="52" x="89" y="59"><path clip-rule="evenodd" d="m89.4849 59.4272h51.2931v74.1948h-51.2931z" fill="url(#b)" fill-rule="evenodd"/></mask><g clip-path="url(#c)"><path d="m166.043 119.504c0 .59.148.737.665.737h9.901c.591 0 .739-.147.739-.737v-22.2857h10.862l11.231 22.3587c.222.517.444.664.887.664h10.862c.517 0 .813-.368.517-.811l-12.34-23.3923c7.463-1.9186 13.005-7.822 13.005-16.6033 0-10.9212-7.537-18.0791-18.251-18.0791h-21.28c-4.507 0-6.798 2.3614-6.798 6.789zm11.305-31.0669v-18.079h15.369c5.616 0 8.867 3.9109 8.867 9.0763 0 5.2392-3.251 9.0027-9.162 9.0027zm51.783 24.5729c-4.507 0-6.428-2.14-6.428-5.239 0-3.764 2.512-6.273 7.758-6.273 6.281 0 10.345 3.321 10.345 7.453v4.059zm15.369 7.231c3.621 0 5.986-2.139 5.986-5.755v-22.3593c0-9.2978-6.577-14.5371-18.103-14.5371-15.961 0-18.695 10.7737-18.695 13.4302 0 .5166.148.7379.665.7379h8.276c.517 0 .813-.2213.887-.7379.665-3.6896 3.399-5.9033 8.349-5.9033 6.281 0 8.867 3.0254 8.867 7.6005v5.9034s-2.586-3.911-11.97-3.911c-9.68 0-15.813 5.2392-15.813 13.2086 0 8.56 6.281 12.323 15 12.323zm20.38-33.1322h8.646c6.797 0 10.714 4.7965 10.714 12.3971 0 7.4531-3.399 12.4711-9.606 12.4711-6.059 0-9.754-4.059-9.754-11.881zm-9.901 47.1532c0 .59.148.738.665.738h8.645c.518 0 .739-.148.739-.738v-18.374s2.956 4.87 11.232 4.87c10.344 0 18.029-8.781 18.029-21.5473 0-12.766-8.498-20.9569-20.394-20.9569h-12.931c-3.62 0-5.985 2.14-5.985 5.7558zm42.547-14.758c0 .59.148.737.665.737h9.015c.517 0 .739-.147.739-.737v-40.5123c0-.5165-.222-.7379-.739-.7379h-9.015c-.517 0-.665.2214-.665.7379zm5.172-57.4107c-3.251 0-5.985 2.2876-5.985 5.682 0 3.4682 2.734 5.5344 5.985 5.5344 3.399 0 6.059-2.0662 6.059-5.5344 0-3.3944-2.66-5.682-6.059-5.682zm29.247 49.2927c-6.798 0-10.788-4.796-10.788-12.3966 0-7.4531 3.399-12.4709 9.68-12.4709 5.985 0 9.827 4.0586 9.827 11.9543v12.9132zm12.561 8.855c3.695 0 5.986-2.139 5.986-5.755v-52.3927c0-.5904-.148-.738-.665-.738h-8.646c-.517 0-.738.1476-.738.738v20.5142s-2.956-4.8703-11.306-4.8703c-10.27 0-17.881 8.7813-17.881 21.5473 0 12.7665 8.423 20.9565 20.32 20.9565zm25.701-7.231c-4.508 0-6.429-2.14-6.429-5.239 0-3.764 2.512-6.273 7.759-6.273 6.28 0 10.344 3.321 10.344 7.453v4.059zm15.369 7.231c3.62 0 5.985-2.139 5.985-5.755v-22.3593c0-9.2978-6.576-14.5371-18.103-14.5371-15.961 0-18.694 10.7737-18.694 13.4302 0 .5166.147.7379.665.7379h8.275c.517 0 .813-.2213.887-.7379.665-3.6896 3.399-5.9033 8.349-5.9033 6.281 0 8.867 3.0254 8.867 7.6005v5.9034s-2.586-3.911-11.97-3.911c-9.679 0-15.812 5.2392-15.812 13.2086 0 8.56 6.28 12.323 14.999 12.323zm12.769-15.348c0 9.74 5.024 15.348 14.852 15.348h6.059c.517 0 .665-.147.665-.737v-7.527c0-.591-.148-.738-.665-.738h-5.099c-3.029 0-5.541-1.919-5.541-5.682v-18.3744h10.64c.517 0 .665-.1476.665-.7379v-7.453c0-.5903-.148-.7379-.665-.7379h-10.64v-11.1426c0-.5166-.148-.6642-.739-.6642h-8.793c-.517 0-.739.1476-.739.6642v11.1426h-5.69c-.517 0-.665.1476-.665.7379v7.453c0 .5903.148.7379.665.7379h5.69zm40.035 8.117c-4.508 0-6.429-2.14-6.429-5.239 0-3.764 2.512-6.273 7.759-6.273 6.28 0 10.344 3.321 10.344 7.453v4.059zm15.369 7.231c3.62 0 5.985-2.139 5.985-5.755v-22.3593c0-9.2978-6.576-14.5371-18.103-14.5371-15.96 0-18.694 10.7737-18.694 13.4302 0 .5166.147.7379.665.7379h8.275c.518 0 .813-.2213.887-.7379.665-3.6896 3.399-5.9033 8.35-5.9033 6.28 0 8.866 3.0254 8.866 7.6005v5.9034s-2.586-3.911-11.97-3.911c-9.679 0-15.812 5.2392-15.812 13.2086 0 8.56 6.28 12.323 14.999 12.323z" fill="#000"/><path clip-rule="evenodd" d="m86.4112 39.579c16.3958-9.4536 37.5558-3.7915 47.0228 12.5829v.0008c9.466 16.3744 3.796 37.5064-12.6 46.96v.0002l-22.9489-39.6968-36.8851 21.2685v-26.4638zm14.5478 71.003-39.959 23.04v-26.464l28.4853-16.4238z" fill="url(#a)" fill-rule="evenodd"/><g mask="url(#d)"><path clip-rule="evenodd" d="m114.279 133.622-24.7941-42.8873 8.3999-31.3075 42.8932 74.1948z" fill="#07f" fill-rule="evenodd"/></g></g></svg>

<svg width="520" height="180" viewBox="0 0 520 180" fill="none" xmlns="http://www.w3.org/2000/svg">
<g clip-path="url(#clip0_248_4927)">
<path d="M166.043 119.504C166.043 120.094 166.191 120.241 166.708 120.241H176.609C177.2 120.241 177.348 120.094 177.348 119.504V97.2183H188.21L199.441 119.577C199.663 120.094 199.885 120.241 200.328 120.241H211.19C211.707 120.241 212.003 119.873 211.707 119.43L199.367 96.0377C206.83 94.1191 212.372 88.2157 212.372 79.4344C212.372 68.5132 204.835 61.3553 194.121 61.3553H172.841C168.334 61.3553 166.043 63.7167 166.043 68.1443V119.504ZM177.348 88.4371V70.3581H192.717C198.333 70.3581 201.584 74.269 201.584 79.4344C201.584 84.6736 198.333 88.4371 192.422 88.4371H177.348ZM229.131 113.01C224.624 113.01 222.703 110.87 222.703 107.771C222.703 104.007 225.215 101.498 230.461 101.498C236.742 101.498 240.806 104.819 240.806 108.951V113.01H229.131ZM244.5 120.241C248.121 120.241 250.486 118.102 250.486 114.486V92.1267C250.486 82.8289 243.909 77.5896 232.383 77.5896C216.422 77.5896 213.688 88.3633 213.688 91.0198C213.688 91.5364 213.836 91.7577 214.353 91.7577H222.629C223.146 91.7577 223.442 91.5364 223.516 91.0198C224.181 87.3302 226.915 85.1165 231.865 85.1165C238.146 85.1165 240.732 88.1419 240.732 92.717V98.6204C240.732 98.6204 238.146 94.7094 228.762 94.7094C219.082 94.7094 212.949 99.9486 212.949 107.918C212.949 116.478 219.23 120.241 227.949 120.241H244.5ZM264.88 87.1088H273.526C280.323 87.1088 284.24 91.9053 284.24 99.5059C284.24 106.959 280.841 111.977 274.634 111.977C268.575 111.977 264.88 107.918 264.88 100.096V87.1088ZM254.979 134.262C254.979 134.852 255.127 135 255.644 135H264.289C264.807 135 265.028 134.852 265.028 134.262V115.888C265.028 115.888 267.984 120.758 276.26 120.758C286.604 120.758 294.289 111.977 294.289 99.2107C294.289 86.4447 285.791 78.2538 273.895 78.2538H260.964C257.344 78.2538 254.979 80.3938 254.979 84.0096V134.262ZM297.526 119.504C297.526 120.094 297.674 120.241 298.191 120.241H307.206C307.723 120.241 307.945 120.094 307.945 119.504V78.9917C307.945 78.4752 307.723 78.2538 307.206 78.2538H298.191C297.674 78.2538 297.526 78.4752 297.526 78.9917V119.504ZM302.698 62.0933C299.447 62.0933 296.713 64.3809 296.713 67.7753C296.713 71.2435 299.447 73.3097 302.698 73.3097C306.097 73.3097 308.757 71.2435 308.757 67.7753C308.757 64.3809 306.097 62.0933 302.698 62.0933ZM331.945 111.386C325.147 111.386 321.157 106.59 321.157 98.9894C321.157 91.5363 324.556 86.5185 330.837 86.5185C336.822 86.5185 340.664 90.5771 340.664 98.4728V111.386H331.945ZM344.506 120.241C348.201 120.241 350.492 118.102 350.492 114.486V62.0933C350.492 61.5029 350.344 61.3553 349.827 61.3553H341.181C340.664 61.3553 340.443 61.5029 340.443 62.0933V82.6075C340.443 82.6075 337.487 77.7372 329.137 77.7372C318.867 77.7372 311.256 86.5185 311.256 99.2845C311.256 112.051 319.679 120.241 331.576 120.241H344.506ZM370.207 113.01C365.699 113.01 363.778 110.87 363.778 107.771C363.778 104.007 366.29 101.498 371.537 101.498C377.817 101.498 381.881 104.819 381.881 108.951V113.01H370.207ZM385.576 120.241C389.196 120.241 391.561 118.102 391.561 114.486V92.1267C391.561 82.8289 384.985 77.5896 373.458 77.5896C357.497 77.5896 354.764 88.3633 354.764 91.0198C354.764 91.5364 354.911 91.7577 355.429 91.7577H363.704C364.221 91.7577 364.517 91.5364 364.591 91.0198C365.256 87.3302 367.99 85.1165 372.94 85.1165C379.221 85.1165 381.807 88.1419 381.807 92.717V98.6204C381.807 98.6204 379.221 94.7094 369.837 94.7094C360.158 94.7094 354.025 99.9486 354.025 107.918C354.025 116.478 360.305 120.241 369.024 120.241H385.576ZM398.345 104.893C398.345 114.633 403.369 120.241 413.197 120.241H419.256C419.773 120.241 419.921 120.094 419.921 119.504V111.977C419.921 111.386 419.773 111.239 419.256 111.239H414.157C411.128 111.239 408.616 109.32 408.616 105.557V87.1826H419.256C419.773 87.1826 419.921 87.035 419.921 86.4447V78.9917C419.921 78.4014 419.773 78.2538 419.256 78.2538H408.616V67.1112C408.616 66.5946 408.468 66.447 407.877 66.447H399.084C398.567 66.447 398.345 66.5946 398.345 67.1112V78.2538H392.655C392.138 78.2538 391.99 78.4014 391.99 78.9917V86.4447C391.99 87.035 392.138 87.1826 392.655 87.1826H398.345V104.893ZM438.38 113.01C433.872 113.01 431.951 110.87 431.951 107.771C431.951 104.007 434.463 101.498 439.71 101.498C445.99 101.498 450.054 104.819 450.054 108.951V113.01H438.38ZM453.749 120.241C457.369 120.241 459.734 118.102 459.734 114.486V92.1267C459.734 82.8289 453.158 77.5896 441.631 77.5896C425.671 77.5896 422.937 88.3633 422.937 91.0198C422.937 91.5364 423.084 91.7577 423.602 91.7577H431.877C432.395 91.7577 432.69 91.5364 432.764 91.0198C433.429 87.3302 436.163 85.1165 441.114 85.1165C447.394 85.1165 449.98 88.1419 449.98 92.717V98.6204C449.98 98.6204 447.394 94.7094 438.01 94.7094C428.331 94.7094 422.198 99.9486 422.198 107.918C422.198 116.478 428.478 120.241 437.197 120.241H453.749Z" fill="black"/>
<path fill-rule="evenodd" clip-rule="evenodd" d="M86.4112 39.579C102.807 30.1254 123.967 35.7875 133.434 52.1619L133.434 52.1627C142.9 68.5371 137.23 89.6691 120.834 99.1227L120.834 99.1229L97.8851 59.4261L61 80.6946V54.2308L86.4112 39.579ZM100.959 110.582L61 133.622V107.158L89.4853 90.7342L100.959 110.582Z" fill="url(#paint0_linear_248_4927)"/>
<mask id="mask0_248_4927" style="mask-type:luminance" maskUnits="userSpaceOnUse" x="89" y="59" width="52" height="75">
<path fill-rule="evenodd" clip-rule="evenodd" d="M89.4849 59.4272H140.778V133.622H89.4849V59.4272Z" fill="url(#paint1_linear_248_4927)"/>
</mask>
<g mask="url(#mask0_248_4927)">
<path fill-rule="evenodd" clip-rule="evenodd" d="M114.279 133.622L89.4849 90.7347L97.8848 59.4272L140.778 133.622H114.279Z" fill="#0077FF"/>
</g>
</g>
<defs>
<linearGradient id="paint0_linear_248_4927" x1="61.7854" y1="125.69" x2="142.164" y2="79.2222" gradientUnits="userSpaceOnUse">
<stop stop-color="#0077FF"/>
<stop offset="1" stop-color="#00ECBB"/>
</linearGradient>
<linearGradient id="paint1_linear_248_4927" x1="124.807" y1="100.187" x2="89.4911" y2="90.7113" gradientUnits="userSpaceOnUse">
<stop stop-color="white"/>
<stop offset="1" stop-color="white" stop-opacity="0"/>
</linearGradient>
<clipPath id="clip0_248_4927">
<rect width="398.734" height="100" fill="white" transform="translate(61 35)"/>
</clipPath>
</defs>
</svg>
